app/renderer/assets/image/components/irSend.svg

<?xml version="1.0" encoding="UTF-8"?>
<svg width="150px" height="150px" viewBox="0 0 150 150" version="1.1" xmlns="http://www.w3.org/2000/svg" xmlns:xlink="http://www.w3.org/1999/xlink">
    <!-- Generator: Sketch 46.1 (44463) - http://www.bohemiancoding.com/sketch -->
    <title>led</title>
    <desc>Created with Sketch.</desc>
    <defs></defs>
    <g id="Page-1" stroke="none" stroke-width="1" fill="none" fill-rule="evenodd">
        <g id="led" fill-rule="nonzero">
            <rect id="Rectangle-path" fill="#7A7E84" x="62.444" y="83.109434" width="6.732" height="45.0396226"></rect>
            <path d="M91.412,113.75283 C91.412,110.050943 88.148,107.171698 84.884,104.498113 C83.66,103.264151 81.212,101.413208 81.212,99.9735849 L81.212,82.9037736 L74.48,82.9037736 L74.48,101.001887 C74.48,104.292453 77.336,106.760377 80.6,109.639623 C82.028,110.873585 84.68,113.54717 84.68,115.192453 C84.68,115.809434 84.68,128.354717 84.68,128.354717 L91.412,128.354717 L91.412,113.75283 Z" id="Shape" fill="#7A7E84"></path>
            <path d="M95.696,63.1603774 L95.696,44.6509434 C95.696,32.5169811 85.904,22.645283 73.868,22.645283 C61.832,22.645283 52.04,32.5169811 52.04,44.6509434 L52.04,87.2226415 C56.528,92.3641509 64.688,95.8603774 73.868,95.8603774 C88.148,95.8603774 99.776,87.6339623 99.776,77.5566038 L99.776,72.8264151 C99.572,69.3301887 98.144,66.0396226 95.696,63.1603774 Z" id="path16" fill="#CCDBE2"></path>
            <ellipse id="ellipse24" fill="#E9EDF4" opacity="0.25" cx="73.664" cy="72.8264151" rx="21.828" ry="15.4245283"></ellipse>
            <polygon id="polygon28" fill="#96A3B2" points="58.568 52.8773585 58.568 72.8264151 61.628 72.8264151 61.628 63.5716981 70.4 63.5716981 82.844 50.2037736 62.444 50.2037736"></polygon>
            <polygon id="polygon30" fill="#96A3B2" points="85.088 49.3811321 86.516 50.8207547 74.684 63.5716981 86.108 63.5716981 86.108 72.8264151 88.76 72.8264151 88.76 49.3811321"></polygon>
            <path d="M83.864,34.3679245 L88.352,33.545283 C85.7,30.0490566 81.824,27.3754717 77.336,26.5528302 L78.152,29.8433962 C80.6,30.8716981 82.64,32.3113208 83.864,34.3679245 Z" id="path34" fill="#FFFFFF" opacity="0.76"></path>
            <path d="M54.284,84.754717 L54.284,89.4849057 C56.324,91.1301887 58.772,92.5698113 61.424,93.5981132 L61.424,88.8679245 C58.568,87.8396226 56.12,86.4 54.284,84.754717 Z" id="path36" fill="#FFFFFF" opacity="0.8"></path>
            <path d="M86.108,85.7830189 C85.292,86.1943396 84.476,86.4 83.66,86.8113208 C83.456,86.8113208 83.252,87.0169811 83.048,87.0169811 C81.212,87.6339623 79.376,88.045283 77.54,88.2509434 C77.336,88.2509434 77.132,88.2509434 76.928,88.2509434 C75.908,88.2509434 74.888,88.4566038 73.868,88.4566038 C73.46,88.4566038 72.848,88.4566038 72.44,88.4566038 C68.768,88.2509434 65.3,87.4283019 62.24,86.1943396 L62.24,60.0754717 L62.24,45.0622642 C62.24,40.5377358 64.892,36.6301887 68.564,34.5735849 L68.564,34.3679245 L64.688,29.6377358 C59.588,32.7226415 56.12,38.4811321 56.12,44.8566038 L56.12,81.8754717 C55.916,81.6698113 55.1,80.8471698 54.692,80.2301887 L53.672,82.2867925 C57.956,86.8113208 65.504,89.8962264 73.868,89.8962264 C78.968,89.8962264 83.864,88.6622642 87.74,86.8113208 L86.108,85.7830189 C86.108,85.7830189 86.108,85.7830189 86.108,85.7830189 Z" id="path38" fill="#FFFFFF"></path>
        </g>
    </g>
</svg>

<svg width="150" height="150" xmlns="http://www.w3.org/2000/svg"><g fill="none"><path fill="#7A7E84" d="M62.444 83.109h6.732v45.04h-6.732zm28.968 30.644c0-3.702-3.264-6.581-6.528-9.255-1.224-1.234-3.672-3.085-3.672-4.524v-17.07H74.48v18.098c0 3.29 2.856 5.758 6.12 8.638 1.428 1.234 4.08 3.907 4.08 5.552v13.163h6.732v-14.602z"/><path d="M95.696 63.16V44.65c0-12.133-9.792-22.005-21.828-22.005S52.04 32.517 52.04 44.651v42.572c4.488 5.141 12.648 8.637 21.828 8.637 14.28 0 25.908-8.226 25.908-18.303v-4.73c-.204-3.497-1.632-6.787-4.08-9.667z" fill="#CCDBE2"/><ellipse fill="#E9EDF4" opacity=".25" cx="73.664" cy="72.826" rx="21.828" ry="15.425"/><path fill="#96A3B2" d="M58.568 52.877v19.95h3.06v-9.255H70.4l12.444-13.368h-20.4zm26.52-3.496l1.428 1.44-11.832 12.75h11.424v9.255h2.652V49.381z"/><path d="M83.864 34.368l4.488-.823c-2.652-3.496-6.528-6.17-11.016-6.992l.816 3.29c2.448 1.029 4.488 2.468 5.712 4.525z" fill="#FFF" opacity=".76"/><path d="M54.284 84.755v4.73a27.087 27.087 0 0 0 7.14 4.113v-4.73c-2.856-1.028-5.304-2.468-7.14-4.113z" fill="#FFF" opacity=".8"/><path d="M86.108 85.783c-.816.411-1.632.617-2.448 1.028-.204 0-.408.206-.612.206a26.531 26.531 0 0 1-5.508 1.234h-.612c-1.02 0-2.04.206-3.06.206H72.44a32.208 32.208 0 0 1-10.2-2.263V45.062c0-4.524 2.652-8.432 6.324-10.488v-.206l-3.876-4.73c-5.1 3.085-8.568 8.843-8.568 15.219v37.018c-.204-.205-1.02-1.028-1.428-1.645l-1.02 2.057c4.284 4.524 11.832 7.61 20.196 7.61 5.1 0 9.996-1.235 13.872-3.086l-1.632-1.028z" fill="#FFF"/></g></svg>
